!!!!SEGMENT: pl-stab--24d_nowakiewicz-kazimierz--hej-bracia-czy-spicie.krn
!!!cenid: 18xx:3391
!!!COM: Nowakiewicz, Kazimierz
!!!COM-rismID: pe30020309
!!!CDT: <1800->1824
!!!CNT: Polish
!!!OTL: Hej bracia czy śpicie
!!!PDT: 1866
!!!AGN:
!!!SMS-siglum: PL-STAb
!!!SMS-shelfmark: 24d
!!!SMS-shelfwork: W
!!!SMS-variant:
!!!SMS-altvar:
!!!NIFC-rismSourceID: 1001165274
!!!NIFC-rismChildID: 1001165274
!!!NIFC-islandoraID: pl-stab:3617
!!!URL-pdf-islandora: https://repozytorium.nifc.pl/islandora/object/pl-stab%3A3617/datastream/PDF/view
!!!URL-scan: https://polish.musicsources.pl/pl/lokalizacje/galeria/rekopisy/4467 @EN{Scan on Polish Music Sources Website} @PL{Skany w portalu Dziedzictwo Muzyki Polskiej w otwartym dostępie}
!!!ONB-nifc:
!!!AIN: 1 organ
!!!key: F
!!!OMD: Allegretto
**kern	**kern
*part1	*part1
*staff2	*staff1
*I"Organo Solo	*I"Hej Bracia
*mI"Organo	*mI"Organo
*I'	*I'
*mI'org	*mI'org
*Iorgan	*Iorgan
*ICklav	*ICklav
*clefF4	*clefG2
*k[b-]	*k[b-]
*F:	*F:
*M2/4	*M2/4
=1	=1
8C\	8cc 8c\
4C\	4cc 4c\
8C\	8cc 8c\
=2	=2
8BBn\L	8bnL 8Bn/
8C\	8cc 8c/
8D\	8dd 8d/
8C\J	8ccJ 8c/
=3	=3
8BBn\L	8bnL 8Bn/
8C\	8cc 8c/
8D\	8dd 8d/
8C\J	8ccJ 8c/
=4	=4
8FF/	8a/
4F 4FF\	4f 4A/
8F 8FF\	8f 8A/
=5	=5
2B- 2G 2C\	8e/L
.	(16e/L
.	16d/JJ)
.	(16c/LL
.	16d/
.	16e/
.	16c/JJ)
=6	=6
2A 2F 2C\	8f/L
.	(16f/L
.	16e/JJ)
.	(16f/LL
.	16g/
.	16a/
.	16f/JJ)
=7	=7
2B- 2G 2C\	8e/L
.	(16e/L
.	16d/JJ)
.	(16c/LL
.	16d/
.	16e/
.	16c/JJ)
=8	=8
2A 2F 2C\	8f/
.	4f/
.	8ffsSSs\
=9	=9
8C\L	8ee\L
8B- 8G 8E\	(16ee\L
.	16dd\JJ)
8B- 8G 8E\	(16cc\LL
.	16dd\
8B-J 8G 8E\	16ee\
.	16cc\JJ)
!!LO:LB:g=original
=10	=10
!LO:SIC:s=8FFL	!
8C\L	8ff\L
!	!LO:SIC:s=(16ffL
8A 8F\	16ff\L
!	!LO:SIC:s=16eeJJ)
.	16ee\JJ
!	!LO:SIC:s=(16ffLL
8A 8F\	16ff\LL
.	16gg\
8AJ 8F\	16aa\
!	!LO:SIC:s=16ffJJ)
.	16ff\JJ
=11	=11
8C\L	8ee\L
!	!LO:SIC:s=(16eeL
8B- 8G 8E\	16ee\L
!	!LO:SIC:s=16ddJJ)
.	16dd\JJ
!	!LO:SIC:s=(16ccLL
8B- 8G 8E\	16cc\LL
.	16dd\
8B-J 8G 8E\	16ee\
!	!LO:SIC:s=16ccJJ)
.	16cc\JJ
=12	=12
(8F\L	8ff\
8C\	4f/
8AA\	.
8FF\J)	8f/
=13||	=13||
8F\	8r
8r	(8c/L
8FF/	8a 8f/
8r	8c/J)
=14	=14
*tremolo	*
!LO:TX:t=P:problem=mixed beam	!
8FF/L	(8bnL 8g#X/
8F\	8cc 8a/
8FF/	8dd 8b/
8F\J	8ccJ 8a/)
*Xtremolo	*
=15	=15
8F\L	8bnL 8g#X/
8c 8A\	8cc 8a/
8c 8A\	8gn/
8cJ 8A\	8cc/J
=16	=16
*rep	*
8F\L	8a/
8c 8A\	4ff\
8c 8A\	.
8cJ 8A\	8f/
*Xrep	*
=17	=17
2C 2CC/	8r
.	8c/L
.	8b- 8g/
.	8c/J
=18	=18
*	*tremolo
2F 2FF/	8aL 8f/
.	8c/
.	8a 8f/
.	8c/J
=19	=19
2C 2CC/	8b-L 8e/
.	8c/
.	8b- 8e/
.	8c/J
*	*Xtremolo
=20	=20
!LO:TX:t=P:problem=mixed beam	!
8FF/L	8f/L
8AJ 8F 8C\	8a/J
!	!LO:TX:t=P:problem=mixed beam
8AL 8F 8C\	8f/L
8AJ 8F 8C\	8ff\J
=21	=21
8C\L	8ee\L
8c\	(16ee\L
.	16dd\JJ)
8B- 8G\	(16cc\LL
.	16dd\
8c\J	16ee\
.	16cc\JJ)
!!LO:LB:g=original
=22	=22
8AL 8F\	8ff\L
8c\	(16ff\L
.	16ee\JJ)
!	!LO:SIC:s=(16ffLL
8A 8F\	16ff\LL
.	16gg\
8c\J	16aa\
!	!LO:SIC:s=16ffJJ)
.	16ff\JJ
=23	=23
8C\L	8ee\L
!	!LO:SIC:s=(16eeL
8c\	16ee\L
!	!LO:SIC:s=16ddJJ)
.	16dd\JJ
8B- 8G\	(16cc\LL
.	16dd\
8c\J	16ee\
.	16cc\JJ)
=24	=24
8AL 8F\	8ee\
8c\	4ff\
8A 8F\	.
8c\J	8f/
=25	=25
!	!LO:TX:a:t=[spiew.:color=grey:mod=
4F\	8r
.	8aL 8f 8c/
4FF/	8a 8f 8c/
.	8aJ 8f 8c/
=26	=26
*rep	*rep
4F\	8r
.	8aL 8f 8c/
4FF/	8a 8f 8c/
.	8aJ 8f 8c/
*Xrep	*Xrep
=27	=27
*rep	*rep
4F\	8r
.	8aL 8f 8c/
4FF/	8a 8f 8c/
.	8aJ 8f 8c/
*Xrep	*Xrep
=28	=28
*rep	*rep
4F\	8r
.	8aL 8f 8c/
4FF/	8a 8f 8c/
.	8aJ 8f 8c/
*Xrep	*Xrep
=29	=29
4C/	8r
.	8b-L 8g 8c/
4CC/	8b- 8g 8c/
.	8b-J 8g 8c/
=30	=30
4FF/	8r
.	8aL 8f 8c/
4F\	8a 8f 8c/
.	8aJ 8f 8c/
=31	=31
4C/	8r
.	8b-L 8g 8c/
4CC/	8b- 8g 8c/
.	8b-J 8g 8c/
=32	=32
2F 2FF\	8r
.	8aL 8f/
.	8aJ 8f/
.	8ff 8a\
!	!LO:TX:a:t=X:color=grey:mod=
=33	=33
*tremolo	*
8B-L 8G 8E\	(16ee\LL
.	16ff\
8C\	16gg\
.	16aa\JJ)
8B- 8G 8E\	(16bb-\LL
.	16aa\
8C\J	16bb-\
.	16gg\JJ)
=34	=34
!	!LO:SIC:s=(16aaLL
8AL 8F\	16aa\LL
.	16cc\
8C\	16ccc\
!	!LO:SIC:s=16ccJJ)
.	16cc\JJ
*	*rep
!	!LO:SIC:s=(16aaLL
8A 8F\	16aa\LL
.	16cc\
8C\J	16ccc\
!	!LO:SIC:s=16ccJJ)
.	16cc\JJ
*	*Xrep
!!LO:LB:g=original
=35	=35
8B-L 8G 8E\	(16ee\LL
.	16ff\
8C\	16gg\
.	16aa\JJ)
8B- 8G 8E\	(16bb-\LL
.	16aa\
8C\J	16bb-\
.	16gg\JJ)
=36	=36
8AL 8F\	(16ff\LL
.	16cc\
8C\	16aa\
.	16cc\JJ)
!	!LO:SIC:s=(16ffLL
8A 8F\	16ff\LL
.	16cc\
8C\J	16aa\
!	!LO:SIC:s=16ffJJ)
.	16ff\JJ
*Xtremolo	*
=37	=37
8GL 8C\	(16ee\LL
.	16ff\
8G 8C\	16gg\
.	16aa\JJ
8G 8E\	16bb-\LL
.	16aa\
8GJ 8C\	16bb-\
.	16gg\JJ)
=38	=38
8AL 8F\	(16ff\LL
.	16gg\
8C\J	16aa\
.	16bb-\JJ
8AL 8F\	16ccc\LL
.	16aa\
8C\J	16ff\
.	16cc\JJ)
=39	=39
8GL 8C\	(16ee\LL
.	16ff\
8G 8C\	16gg\
.	16aa\JJ
8G 8E\	16bb-\LL
.	16aa\
8GJ 8C\	16bb-\
.	16gg\JJ)
=40	=40
8F/L	8ff\
16C/L	8r
16AA/JJ	.
8FF/	8f/L
8r	16g/L
.	16a/JJ
=41	=41
!LO:TX:a:t=I my już:color=grey:mod=	!LO:TX:a:t=[Sp J.:color=grey:mod=
8B-L 8F 8D 8BB-\	8b-/L
8B- 8F 8D 8BB-\	(16b-/L
.	16a/JJ)
8B- 8F 8D 8BB-\	8b-/L
8B-J 8F 8D 8BB-\	(16b-/L
.	16a/JJ)
=42	=42
*tremolo	*
8B-L 8F 8D 8BB-\	(16b-\LL
.	16cc\
8B- 8F 8D 8BB-\	16dd\
.	16b-\JJ)
8B- 8F 8D 8BB-\	8f/L
8B-J 8F 8D 8BB-\	8f/J
=43	=43
8e-XL 8c 8A 8F\	8cc\L
8e- 8c 8A 8F\	(16cc\L
.	16bn\JJ)
8e- 8c 8A 8F\	8cc\L
8e-J 8c 8A 8F\	(16cc\L
.	16b\JJ)
!!LO:LB:g=original
=44	=44
8e-XL 8c 8A 8F\	(16cc\LL
.	16dd\
8e- 8c 8A 8F\	16ee-X\
.	16cc\JJ)
8e- 8c 8A 8F\	8f/L
8e-J 8c 8A 8F\	8f/J
*Xtremolo	*
=45	=45
8d 8D\	8r
8r	8dd 8d\
8BB-/	8r
8r	8b- 8B-/
=46	=46
8G 8GG\	8r
8r	8g/
8C\	8r
8r	8cc 8c/
=47	=47
!LO:TX:t=P:problem=mixed beam	!
8F\L	8r
!	!LO:TX:t=P:problem=mixed beam
8FF/J	8f/L
8F\L	8ff\J
8B-\J	8bb- 8b-\
!	!LO:TX:a:t=|:color=grey:mod=
=48	=48
8dL 8D\	8dddL 8dd\
8dJ 8D\	8dddJ 8dd\
8B-L 8BB-\	8bb-L 8b-\
8B-J 8BB-\	8bb-J 8b-\
=49	=49
8GL 8GG\	8ggL 8g\
8GJ 8GG\	8ggJ 8g\
8cL 8C\	8cccL 8cc\
8cJ 8C\	8cccJ 8cc\
!	!LO:TX:a:t=|:color=grey:mod=
=50	=50
16r	8ffL 8f\
16F\LL	.
16C\	8ffJ 8f\
16AA\JJ	.
8FF/	8f/
!	!LO:TX:b:t=Trwoga:color=grey:mod=
8r	8r
=51	=51
8r	8r
!LO:TX:t=P:problem=mixed beam	!
8BB-/L	8b-L 8f 8d/
8B-\J	8b-J 8f 8d/
8r	8r
=52	=52
8r	8r
!LO:TX:t=P:problem=mixed beam	!
8FF/L	8ccL 8a 8f 8c/
8F\J	8ccJ 8a 8f 8c/
8r	8r
=53	=53
8D\	8r
8r	8dd 8d/
8BB-/	8r
8r	8b- 8B-/
=54	=54
8GG/	8r
8r	8g/
8C/	8r
8r	8cc 8c/
!!LO:LB:g=original
=55	=55
16r	16r
(16F\LL	(16ff\LL
16E\	16ee\
16D\JJ	16dd\JJ
16C\LL	16cc\LL
16BB-\	16b-\
16AA\	16a\
16GG\JJ)	16g\JJ)
=56	=56
4FF/	4f/
!LO:TX:b:i:t=Staniątki 19 grudnia 1866,r.\nWincenty Leszczyński:mod=	!
!LO:TX:a:t=V&colon;S&colon;:mod=	!
4r	4r
!!LO:PB:g=original
=57	=57
8FL 8BB-\	8b-\L
8FJ 8BB-\	(16a\L
.	16b-\JJ)
8FL 8AA\	8cc\L
8FJ 8AA\	(16b-\L
.	16cc\JJ)
=58	=58
8FL 8BB-\	8dd\L
8F 8BB-\	8b-\J
8F 8BB-\	(16ff\LL
.	16een\
8FJ 8BB-\	16ff\
.	16dd\JJ)
=59	=59
4G 4GG\	8ggL 8g\
.	8ggJ 8g\
4E-X\	8ee-XL 8e-X\
.	8ee-J 8e-\
=60	=60
!LO:TX:t=P:problem=mixed beam	!
8F\L	8ccL 8c/
8F\	8ccJ 8c/
8FF/	8ffL 8f/
8FF/J	8ffJ 8f/
=61	=61
[2F [2BB-\	8b-L 8B-/
.	8cc 8c/
.	8dd 8d/
.	8ee-XJ 8e-X/
=62	=62
2F_ 2BB-\_	8ffL 8f/
.	(16ffL 16f/
.	16eenJJ 16en/)
.	8ffL 8f/
!	!LO:SIC:s=(16ffL 16f
.	16ffL 16f/
!	!LO:SIC:s=16eeJJ 16e)
.	16eenJJ 16en/
=63	=63
2F_ 2BB-\_	8ffL 8f/
!	!LO:SIC:s=(16ffL 16f
.	16ffL 16f/
!	!LO:SIC:s=16eeJJ 16e)
.	16eeJJ 16e/
.	8ffL 8f\
.	8bb-J 8b-\
=64	=64
2F_ 2BB-\_	4ff 4f\
.	4dd 4d\
=65	=65
2F_ 2BB-\_	8b-L 8B-/
.	8cc 8c/
.	8dd 8d/
.	8ee-XJ 8e-X/
=66	=66
2F_ 2BB-\_	8ffL 8f/
!	!LO:SIC:s=(16ffL 16f
.	16ffL 16f/
!	!LO:SIC:s=16eenJJ 16en)
.	16eenJJ 16en/
.	8ffL 8f/
!	!LO:SIC:s=(16ffL 16f
.	16ffL 16f/
!	!LO:SIC:s=16eeJJ 16e)
.	16eenJJ 16en/
=67	=67
2F] 2BB-\]	8ffL 8f/
!	!LO:SIC:s=(16ffL 16f
.	16ffL 16f/
!	!LO:SIC:s=16ddJJ 16d)
.	16ddJJ 16d/
.	8ee-XL 8e-X\
.	8ccJ 8c\
!!LO:LB:g=original
=68	=68
4BB-/	4b-\
8B- 8BB-\	8bb- 8b-\
8r	8r
=69	=69
[2F [2C [2FF\	8cc 8c/
.	4cc 4c/
.	8cc 8c/
=70	=70
2F_ 2C_ 2FF\_	8bnL 8Bn/
.	8cc 8c/
.	8dd 8d/
.	8ccJ 8c/
=71	=71
2F_ 2C_ 2FF\_	8bnL 8Bn/
.	8cc 8c/
.	8g/
.	8ccJ 8c/
=72	=72
2F] 2C] 2FF\]	8a/
.	4fsSSs</
.	8f/
=73	=73
8FF/	8r
8r	8c/L
8F\	8a 8f/
8r	8c/J
=74	=74
*	*tremolo
8F 8FF\	8aL 8f/
8r	8c/
8F 8FF\	8a 8f/
8r	8c/J
=75	=75
8C/	8b-L 8g/
8r	8c/
8C 8CC/	8b- 8g/
8r	8c/J
=76	=76
8F 8FF\	8aL 8f/
8r	8c/
8F 8FF\	8a 8f/
8r	8c/J
=77	=77
2C 2CC/	8b-L 8g/
.	8c/
.	8b- 8g/
.	8c/J
=78	=78
2F 2FF\	8aL 8f/
.	8c/
.	8a 8f/
.	8c/J
=79	=79
2C/	8b-L 8g/
.	8c/
.	8b- 8g/
.	8c/J
*	*Xtremolo
=80	=80
2F 2FF\	8aL 8f\
.	8cc\J
.	8aL 8f\
.	8ff\J
=81	=81
8GL 8C\	8ee\L
8G 8C\	(16ee\L
.	16dd\JJ)
8G 8E\	(16cc\LL
.	16dd\
8GJ 8C\	16ee\
.	16cc\JJ)
=82	=82
8AL 8F\	8ff\L
8C\J	(16ff\L
.	16ee\JJ)
8AL 8F\	(16ff\LL
.	16gg\
8C\J	16aa\
.	16ff\JJ)
!!LO:LB:g=original
=83	=83
8GL 8C\	8ee\L
8G 8C\	(16ee\L
.	16dd\JJ)
8G 8E\	(16cc\LL
.	16dd\
8GJ 8C\	16ee\
.	16cc\JJ)
=84	=84
2F 2C 2FF\	8ff\
.	4ff\
.	8f/
=85	=85
*	*tremolo
8F 8FF\	8aL 8f/
8r	8c/
8F 8FF\	8a 8f/
8r	8c/J
=86	=86
8FF/	8aL 8f/
8r	8c/
8F\	8a 8f/
8r	8c/J
=87	=87
8FF/	8aL 8f/
8r	8c/
8F\	8a 8f/
8r	8c/J
=88	=88
8FF/	8aL 8f/
8r	8c/
8F\	8a 8f/
8r	8c/J
*	*Xtremolo
=89	=89
*tremolo	*
8B-L 8C\	8e/L
8B- 8C\	(16e/L
.	16d/JJ)
8B- 8C\	(16c/LL
.	16d/
8B-J 8C\	16e/
.	16c/JJ)
=90	=90
8AL 8C\	8f/L
!	!LO:SIC:s=(16f/L
8A 8C\	16f/L
!	!LO:SIC:s=16e/JJ)
.	16e/JJ
!	!LO:SIC:s=(16f/LL
8A 8C\	16f/LL
.	16g/
8AJ 8C\	16a/
!	!LO:SIC:s=16f/JJ)
.	16f/JJ
=91	=91
!	!LO:TX:t=P:problem=mixed beam
(8B-L 8G\	8e/L
!	!LO:SIC:s=(16eeL
8C\	16ee\L
!	!LO:SIC:s=16ddJJ)
.	16dd\JJ
8B- 8G\	(16cc\LL
.	16dd\
8C\J)	16ee\
.	16cc\JJ)
=92	=92
8AL 8F\	8ff 8a\
8C\	4cc 4a\
8A 8F\	.
8C\J	8ff 8a\
=93	=93
8B-L 8G 8E\	8ee\L
8C\	(16ee\L
.	16dd\JJ)
8B- 8G 8E\	(16cc\LL
.	16dd\
8C\J	16ee\
.	16cc\JJ)
=94	=94
8AL 8F\	8ff\L
8C\	(16ff\L
.	16ee\JJ)
8A 8F\	(16ff\LL
.	16gg\
8C\J	16aa\
.	16ff\JJ)
=95	=95
8B-L 8G 8E\	8ee\L
8C\	(16ee\L
.	16dd\JJ)
8B- 8G 8E\	(16cc\LL
.	16dd\
8C\J	16ee\
.	16cc\JJ)
*Xtremolo	*
!!LO:LB:g=original
=96	=96
8F\L	8ff\
8F\J	4ff\
8C/L	.
8FF/J	(16gg\LL
.	16aa\JJ)
=97	=97
2G 2C\	8cc\L
.	(16dd\L
.	16ee\JJ)
.	8cc\L
.	(16dd\L
.	16ee\JJ)
=98	=98
[2F [2C [2FF\	8ff\L
.	(16gg\L
.	16aa\JJ)
.	8ff\L
.	(16gg\L
.	16aa\JJ)
=99	=99
2F_ 2C_ 2FF\_	8ff\L
.	8aa\
.	8ccc\
.	8aa\J
=100	=100
4F] 4C] 4FF\]	8ff\L
.	(16gg\L
.	16aa\JJ)
4G 4C\	8cc\L
.	(16dd\L
.	16ee\JJ)
=101	=101
!	!LO:TX:t=P:problem=mixed beam
4F 4FF\	8ff\L
.	8a 8f 8c/
4C/	8a 8f 8c/
.	8aJ 8f 8c/
=102	=102
4F\	8r
.	8aL 8f 8c/
4FF/	8a 8f 8c/
.	8aJ 8f 8c/
=103	=103
4F\	8r
*	*tremolo
.	8aL 8f 8c/
4FF/	8a 8f 8c/
.	8aJ 8f 8c/
=104	=104
4F\	8r
.	8aL 8f 8c/
4FF/	8a 8f 8c/
.	8aJ 8f 8c/
=105	=105
4C/	8r
.	8gL 8e 8c/
4CC/	8g 8e 8c/
.	8gJ 8e 8c/
=106	=106
4F\	8r
.	8aL 8f 8c/
4FF/	8a 8f 8c/
.	8aJ 8f 8c/
=107	=107
4C/	8r
.	8b-L 8g 8e 8c/
4CC/	8b- 8g 8e 8c/
.	8b-J 8g 8e 8c/
*	*Xtremolo
=108	=108
!	!LO:TX:t=P:problem=mixed beam
8F/L	8aL 8f/
16C/L	(>8a 8f/
16AA/JJ	.
4FF/	8a 8f/
.	8ff\J)
=109	=109
[2C [2FF/	8cc 8c/
.	4cc 4c/
.	8cc 8c/
!!LO:LB:g=original
=110	=110
2C_ 2FF/_	(8bnL 8Bn/
.	8cc 8c/
.	8dd 8d/
.	8ccJ 8c/)
=111	=111
2C_ 2FF/_	(8bnL 8Bn/
.	8cc 8c/
.	8g/
.	8ccJ 8c/)
=112	=112
2C] 2FF/]	8a/
.	4fsSSs</
.	8f/
=113	=113
8C\L	8e/L
!	!LO:SIC:s=(16eL
8B- 8G 8E\	16e/L
!	!LO:SIC:s=16dJJ)
.	16d/JJ
!	!LO:SIC:s=(16cLL
8B- 8G 8E\	16c/LL
.	16d/
8B-J 8G 8E\	16e/
!	!LO:SIC:s=16cJJ)
.	16c/JJ
=114	=114
*tremolo	*
(8AL 8F\	8f/L
8C\	(16f/L
.	16e/JJ)
8A 8F\	(16f/LL
.	16g/
8C\J)	16a/
.	16f/JJ)
=115	=115
(8B-L 8G 8E\	8e/L
8C\	(16e/L
.	16d/JJ)
8B- 8G 8E\	(16c/LL
.	16d/
8C\J)	16e/
.	16c/JJ)
=116	=116
(8AL 8F\	8f/
8C\	4fsSSs</
8A 8F\	.
8C\J)	8ff\
=117	=117
!	!LO:SIC:s=(16eeLL
8B-L 8G 8C\	16ee\LL
.	16dd\
8B- 8G 8C\	16cc\
.	16dd\JJ
8B- 8G 8C\	16ee\LL
.	16ff\
8B-J 8G 8C\	16gg\
!	!LO:SIC:s=16eeJJ)
.	16ee\JJ
=118	=118
8AL 8F 8C\	8ff\L
8A 8F 8C\	8ff\J
8A 8F 8C\	8aaL 8a\
8AJ 8F 8C\	8ffJ 8f\
=119	=119
8B-L 8G 8E 8C\	8eeL 8e\
8B- 8G 8E 8C\	8gg 8g\
8B- 8G 8E 8C\	8ccc 8cc\
8B-J 8G 8E 8C\	8ggJ 8g\
=120	=120
8AL 8F 8C\	4.ff 4.f\
8A 8F 8C\	.
8A 8F 8C\	.
8AJ 8F 8C\	8ff 8f\
=121	=121
[[8cL [[8G [[8C\	4.ee 4.e\
8c 8G 8C\	.
8c 8G 8C\	.
8cJ 8G 8C\	8gg 8g\
!!LO:LB:g=original
=122	=122
2c]] 2G]] 2C\]]	8.cc\L
.	16bb-\Jk
.	8.ee\L
.	16gg\Jk
=123	=123
[2F [2C [2FF\	4.ff 4.f\
.	8aa\
=124	=124
2F] 2C] 2FF\]	8.ff\L
.	16aa\Jk
.	8.ff\L
.	16ccc\Jk
=125	=125
[2G [2E [2C\	4.ee\
.	8gg\
=126	=126
2G] 2E] 2C\]	8.cc\L
.	16ccc\Jk
.	8.ee\L
.	16gg\Jk
=127	=127
!LO:SIC:s=8F^L	!
8F\L	8ff^\L
(16E\L	(16ee\L
16D\JJ)	16dd\JJ)
(16C\LL	(16cc\LL
16BB-\	16b-\
16AA\	16a\
16GG\JJ)	16g\JJ)
=128	=128
8FF/L	4f/
8AA/	.
8C/	4cc 4a 4f/
8AA/J	.
=129	=129
4F 4FF\	4ff 4cc 4a 4f\
8r	8r
8F 8FF\	8f 8c 8A/
=130	=130
!LO:SIC:s=4F 4FF;<	!
4F 4FF;\	4f 4c 4A;/
4r	4r
==	==
*-	*-
!!!system-decoration: {(s1,s2)}
!!!RDF**kern: > = above
!!!RDF**kern: < = below
!!!ENC: Filip Voros
!!!END: 2021-11-16
!!!ENC: Marta Lawrence
!!!END: 2021-11-30
!!!ENC-modern: Andrzej Kubiczek
!!!END-modern: 2022-08-23
!!!filter-modern: shed -k -e "s/([^a-gA-Gn#X-])[<>]/$1/g" | shed -e "s/TX(.*):t=P:/tx$1:t=P:/LG" | shed -e "s/^(X?)rep$/$1REP/I" | sic -sq | modori -m | autostem -r | tie -s
!!!YEC: Copyright 2022 Narodowy Instytut Fryderyka Chopina (https://polishscores.org)
!!!YEM: License CC-BY-4.0 (https://creativecommons.org/licenses/by/4.0)
